svg/emoji_u1f966.svg

<?xml version="1.0" encoding="UTF-8" standalone="no"?>
<!DOCTYPE svg PUBLIC "-//W3C//DTD SVG 1.1//EN" "http://www.w3.org/Graphics/SVG/1.1/DTD/svg11.dtd">
<svg width="100%" height="100%" viewBox="0 0 128 128" version="1.1" xmlns="http://www.w3.org/2000/svg" xmlns:xlink="http://www.w3.org/1999/xlink" xml:space="preserve" xmlns:serif="http://www.serif.com/" style="fill-rule:evenodd;clip-rule:evenodd;stroke-linejoin:round;stroke-miterlimit:2;">
    <path id="path4629" d="M75.545,3.107C74.064,3.105 72.38,3.327 70.48,3.93C62.88,6.34 62.88,13.259 61.25,13.449C59.62,13.639 60.191,10.849 54.811,8.449C52.181,7.279 47.99,7.971 47.99,7.971C47.99,7.971 46.75,3.849 39.92,3.359C33.09,2.869 28,8.449 28,8.449C28,8.449 15.6,5.66 7.82,18.15C-0.784,31.962 8.567,41.016 8.578,41.027L8.576,41.031C8.565,41.035 6.957,41.615 5.801,45.83C4.641,50.06 6.471,53.52 6.471,53.52C6.471,53.52 6.503,53.512 6.504,53.512C7.836,56.41 9.689,56.67 9.689,56.67C9.689,56.67 9.5,60.91 12,64.52C14.5,68.13 15.69,69.84 24.77,72.59C33.85,75.34 50.23,78.43 50.23,78.43L54.449,94.811C54.449,94.811 55.579,98.861 60.609,100.971C65.639,103.081 69.57,102.529 69.57,102.529C69.57,102.529 71.651,108.281 78.561,109.881C84.541,111.271 89.311,108.26 89.311,108.26C89.311,108.26 94.34,111.341 100.82,109.881C108.34,108.191 110.061,103.561 110.061,103.561C110.061,103.561 116.22,102.91 120.27,97.07C124.32,91.23 121.4,84.59 121.4,84.59C121.4,84.59 124.99,79.27 123.99,73.24C123.093,67.795 120.935,65.934 120.924,65.924C120.928,65.923 120.961,65.92 120.961,65.92C120.961,65.92 118.071,62.84 115.381,60.15C114.09,58.86 112.759,57.277 107.945,56.855C107.964,56.848 113.454,54.573 115.4,44.859C117.35,35.129 112.48,30.27 112.48,30.27C112.48,30.27 114.39,24.781 111.18,19.891C108.105,15.198 103.733,17.452 101.619,15.359C101.617,15.358 101.617,15.355 101.615,15.354C101.614,15.352 101.611,15.351 101.609,15.35C100.079,13.724 100.08,12.306 99.801,11.039C99.561,9.989 98.45,6.551 93.26,4.891C87.49,3.051 85.47,4.98 83.84,5.08C82.617,5.155 79.989,3.115 75.545,3.107Z" style="fill:rgb(111,160,59);fill-rule:nonzero;"/>
    <path id="path4635" d="M63.783,50.285C62.732,50.285 62.311,50.52 62.311,50.52C62.311,50.52 54.971,60.389 52.801,63.279C50.923,65.78 47.518,70.796 44.141,72.805C43.798,72.465 43.446,71.978 43.16,71.23C42.56,69.67 42.32,64.971 41.84,60.881C41.54,58.321 41.359,55.34 41.359,55.34C41.359,55.34 37.87,53.78 35.58,54.02C35.58,54.02 35.58,54.01 35.58,54.01C35.58,54.01 31.729,54.251 30.279,54.971C28.829,55.691 27.27,56.55 26.91,57.51C26.55,58.47 27.15,62.81 27.15,68.58C27.15,74.35 26.82,79.701 24.02,83.141C20.41,87.591 14.27,93.851 9.58,98.061C7.55,99.881 6.21,100.59 6.09,101.07C5.97,101.55 6.96,105.931 7.9,107.811C9.534,111.078 12.414,113.989 12.641,114.217C13.588,115.387 14.68,116.609 15.721,117.461C16.394,118.013 17.176,118.632 18.01,119.264C18.239,119.485 18.757,119.962 19.82,120.689C20.715,121.308 21.321,121.625 21.645,121.787C23.008,122.634 24.327,123.318 25.4,123.609C28.36,124.409 30.639,125.291 33.289,121.801C35.939,118.311 37.981,113.739 45.211,106.029C52.441,98.319 57.611,93.629 63.381,90.859C69.151,88.089 77.461,86.17 79.631,85.93C81.801,85.69 84.561,85.449 84.561,85.449C84.561,85.449 86.191,82.161 85.641,79.551C85.639,79.541 85.635,79.533 85.633,79.523L85.65,79.52C85.65,79.52 84.69,76.151 84.09,74.711C83.49,73.271 82.16,71.58 82.16,71.58C82.16,71.58 71.09,74.47 69.16,75.07C68.24,75.356 65.265,75.803 62.355,76.066C62.38,75.55 62.546,74.929 63.02,74.25C64.14,72.64 69.281,66.421 70.971,64.131C72.661,61.841 76.09,57.4 76.02,56.68C75.9,55.365 72.803,53.689 71.828,53.082C71.828,53.082 71.859,53.039 71.859,53.039C71.859,53.039 69.41,51.361 66.4,50.641C65.272,50.371 64.414,50.285 63.783,50.285Z" style="fill:rgb(189,207,70);fill-rule:nonzero;"/>
</svg>

<?xml version="1.0" encoding="utf-8"?>
<!-- Generator: Adobe Illustrator 25.2.3, SVG Export Plug-In . SVG Version: 6.00 Build 0)  -->
<svg version="1.1" id="Layer_3" xmlns="http://www.w3.org/2000/svg" xmlns:xlink="http://www.w3.org/1999/xlink" x="0px" y="0px"
	 viewBox="0 0 128 128" style="enable-background:new 0 0 128 128;" xml:space="preserve">
<path style="fill:#2F7C31;" d="M21.74,24.77L8.57,41.04c0,0-3.95,4.95-2.93,9.84c1.15,5.46,4.05,5.79,4.05,5.79
	s-0.19,4.24,2.31,7.85s3.69,5.32,12.77,8.07s25.46,5.84,25.46,5.84l4.22,16.38c0,0,1.13,4.05,6.16,6.16s8.96,1.56,8.96,1.56
	s2.08,5.75,8.99,7.35c5.98,1.39,10.75-1.62,10.75-1.62s5.03,3.08,11.51,1.62c7.52-1.69,9.24-6.32,9.24-6.32s6.16-0.65,10.21-6.49
	s1.13-12.48,1.13-12.48s3.59-5.32,2.59-11.35c-0.9-5.46-3.07-7.32-3.07-7.32l-12.98-9.06c0,0,5.51-2.27,7.46-12
	s-2.92-14.59-2.92-14.59s1.91-5.49-1.3-10.38c-3.08-4.7-7.46-2.43-9.57-4.54c-2.6-2.6-17.35-4.22-17.35-4.22L67.25,25.26
	L21.74,24.77z"/>
<path style="fill:#709921;" d="M28,8.45c0,0,5.09-5.58,11.92-5.09s8.07,4.61,8.07,4.61s4.19-0.69,6.82,0.48
	c5.38,2.4,4.81,5.19,6.44,5s1.63-7.11,9.23-9.52s11.73,1.25,13.36,1.15s3.65-2.03,9.42-0.19c5.19,1.66,6.3,5.1,6.54,6.15
	c0.28,1.27,0.28,2.69,1.82,4.32s-0.11,7.54-2.32,9.94s-6.52,2.65-6.52,2.65s1.01,8.3-5.89,12.86c-4.85,3.2-10.07,1.94-10.07,1.94
	S71.25,47.57,65,45.55c-6.25-2.02-6.92-4.61-3.46-7.5c3.46-2.88,5-8.46,0.87-9.52c-4.13-1.06-8.36,0.96-9.8,5.48
	c-1.44,4.52-1.54,8.46-6.25,11.82c-4.71,3.36-8.17,2.31-12.88,3.56c-4.71,1.25-7.88,5.29-11.82,5.38c-3.94,0.1-7.02-2.79-9.04-2.5
	c-2.02,0.29-6.15,1.25-6.15,1.25s-1.83-3.46-0.67-7.69s2.78-4.8,2.78-4.8s-9.37-9.06-0.76-22.88C15.6,5.66,28,8.45,28,8.45z"/>
<path style="fill:#709921;" d="M79.71,73.23c0,0,3.65-1.54,6.06-5.67c2.4-4.13,3.65-7.21,7.5-9.23c3.84-2.02,8.17-1.83,13.75-1.54
	c5.58,0.29,6.99,1.99,8.36,3.36c2.69,2.69,5.58,5.77,5.58,5.77s-4.71,0.38-7.21,4.23s-4.04,9.13-4.04,9.13s-3.36,1.25-6.92,3.17
	c-3.56,1.92-11.44,7.02-16.63,5.67c-5.19-1.35-7.88-7.31-7.88-7.98C78.27,79.48,79.71,73.23,79.71,73.23z"/>
<path style="fill:#9FB525;" d="M35.34,81.83c-0.24,0.72-25.28,28.89-25.28,28.89s3.01,4.57,5.66,6.74s6.95,5.41,9.68,6.15
	c2.96,0.8,5.24,1.68,7.89-1.81c2.65-3.49,4.69-8.06,11.92-15.77s12.4-12.4,18.17-15.17s14.08-4.69,16.25-4.93
	c2.17-0.24,4.93-0.48,4.93-0.48s1.63-3.29,1.08-5.9c-0.61-2.91-4.69-4.21-4.69-4.21l-20.7,3.01l2.45-0.82c0,0-0.97-1.43,0.32-3.28
	c1.12-1.61,6.26-7.83,7.95-10.12c1.69-2.29,5.12-6.73,5.05-7.45c-0.12-1.32-3.25-3.01-4.21-3.61c-0.96-0.6-3.01-1.44-3.01-1.44
	L46.65,74.6l-1.2-1.08c0,0-1.44-0.07-2.29-2.29c-0.6-1.56-0.84-6.26-1.32-10.35c-0.3-2.56-0.48-5.54-0.48-5.54s-3.49-1.56-5.78-1.32
	s-4.93,2.77-4.93,2.77L35.34,81.83z"/>
<path style="fill:#B7D118;" d="M26.91,57.51c-0.36,0.96,0.24,5.3,0.24,11.07s-0.33,11.12-3.13,14.56
	c-3.61,4.45-9.75,10.71-14.44,14.92c-2.03,1.82-3.37,2.53-3.49,3.01s0.87,4.86,1.81,6.74c1.7,3.4,4.82,6.49,4.82,6.49
	s12.51-14.07,17.81-19.49c5.3-5.42,8.18-9.03,9.39-7.82c1.2,1.2-2.79,5.89-5.66,9.15c-4.33,4.93-16.47,22.92-16.47,22.92
	s0.67,0.7,2.03,1.63c1.2,0.83,2.14,1.26,2.14,1.26s6.4-10.41,15.31-19.8s13.96-13.72,20.1-15.77s28.28-6.86,28.28-6.86
	s-0.96-3.37-1.56-4.81s-1.93-3.13-1.93-3.13s-11.07,2.89-13,3.49c-1.93,0.6-12.88,1.93-13.36,0.72c-0.48-1.2,7.34-10.95,9.63-13.96
	c2.29-3.01,6.43-8.79,6.43-8.79s-2.45-1.68-5.46-2.4c-3.01-0.72-4.09-0.12-4.09-0.12s-7.34,9.87-9.51,12.76
	c-2.17,2.89-6.38,9.15-10.23,10.23c-3.85,1.08-4.81,0.12-5.3-2.77c-0.48-2.89-1.69-16.73-1.69-16.73s-3.85,0.24-5.3,0.96
	S27.27,56.55,26.91,57.51z"/>
<path style="fill:#2F7C31;" d="M102.96,75.13c0,0,2.24-4.05,4.17-2.36c1.94,1.69-1.75,7.02-2.54,7.2c-0.79,0.18-6.95-1.87-6.05-4.17
	C99.46,73.5,102.96,75.13,102.96,75.13z"/>
<path style="fill:#2F7C31;" d="M44.78,34.49c2.3-0.08,7.13-4.8,5.09-7.25c-1.65-1.98-5.09,1.86-5.09,1.86s-3.64-3.75-5.08-1.94
	C37.65,29.78,43.09,34.55,44.78,34.49z"/>
<path style="fill:#2F7C31;" d="M31.96,39.21c0,0,2-4.11,4.29-2.36c2.3,1.75-1.69,7.68-2.9,8.04c-1.21,0.36-7.71-3.36-5.99-5.99
	C28.76,36.79,31.96,39.21,31.96,39.21z"/>
<path style="fill:#2F7C31;" d="M14.36,35.46c0.72,0.12,5.87-2.78,4.41-5.32s-4.41,0.67-4.41,0.67s-2.79-2.47-3.99-0.97
	C8.44,32.26,13.28,35.28,14.36,35.46z"/>
<path style="fill:#2F7C31;" d="M15.27,43.81c0,0,1.94-3.99,3.99-2.48c2.06,1.51-1.51,7.56-2.06,7.8c-0.54,0.24-7.81-1.81-6.23-4.72
	C12.07,42.42,15.27,43.81,15.27,43.81z"/>
<path style="fill:#2F7C31;" d="M79.21,39.31c1.59-0.69,4.25-6.07,1.76-7.16c-2.01-0.88-3.06,2.4-3.06,2.4s-2.23-1.96-3.76-0.35
	C71.8,36.67,78.25,39.73,79.21,39.31z"/>
<path style="fill:#2F7C31;" d="M90.51,18.38c0,0,0.13-2.34,1.93-2.22c1.98,0.14,1.72,5.02,0.21,5.94c-1.51,0.92-6.49-1.72-5.36-3.56
	C88.01,17.37,90.64,18.17,90.51,18.38z"/>
</svg>
